storage/app/icons/phosphoricons/duotone/notepad-duotone.svg

<svg xmlns="http://www.w3.org/2000/svg" fill="currentColor" viewBox="0 0 256 256"><path d="M208 40v160a24 24 0 0 1-24 24H72a24 24 0 0 1-24-24V40Z" opacity=".2"/><path d="M168 128a8 8 0 0 1-8 8H96a8 8 0 0 1 0-16h64a8 8 0 0 1 8 8m-8 24H96a8 8 0 0 0 0 16h64a8 8 0 0 0 0-16m56-112v160a32 32 0 0 1-32 32H72a32 32 0 0 1-32-32V40a8 8 0 0 1 8-8h24v-8a8 8 0 0 1 16 0v8h32v-8a8 8 0 0 1 16 0v8h32v-8a8 8 0 0 1 16 0v8h24a8 8 0 0 1 8 8m-16 8h-16v8a8 8 0 0 1-16 0v-8h-32v8a8 8 0 0 1-16 0v-8H88v8a8 8 0 0 1-16 0v-8H56v152a16 16 0 0 0 16 16h112a16 16 0 0 0 16-16Z"/></svg>

<svg xmlns="http://www.w3.org/2000/svg" viewBox="0 0 256 256" fill="currentColor"><path d="M208,40V200a24,24,0,0,1-24,24H72a24,24,0,0,1-24-24V40Z" opacity="0.2"/><path d="M168,128a8,8,0,0,1-8,8H96a8,8,0,0,1,0-16h64A8,8,0,0,1,168,128Zm-8,24H96a8,8,0,0,0,0,16h64a8,8,0,0,0,0-16ZM216,40V200a32,32,0,0,1-32,32H72a32,32,0,0,1-32-32V40a8,8,0,0,1,8-8H72V24a8,8,0,0,1,16,0v8h32V24a8,8,0,0,1,16,0v8h32V24a8,8,0,0,1,16,0v8h24A8,8,0,0,1,216,40Zm-16,8H184v8a8,8,0,0,1-16,0V48H136v8a8,8,0,0,1-16,0V48H88v8a8,8,0,0,1-16,0V48H56V200a16,16,0,0,0,16,16H184a16,16,0,0,0,16-16Z"/></svg>
